icon-themes/breeze_svg/cmd/sc_dbviewtablenames.svg

<svg viewBox="0 0 16 16" xmlns="http://www.w3.org/2000/svg">/&amp;gt;<path d="m2 2v12h12v-12zm1 4h3v3h-3zm4 0h2v3h-2zm3 0h3v3h-3zm-7 4h3v3h-3zm4 0h2v3h-2zm3 0h3v3h-3z" fill="#4d4d4d"/><path d="m3 3v2h6v-2z" fill="#1d99f3"/></svg>

<svg xmlns="http://www.w3.org/2000/svg" viewBox="0 0 16 16">
     />
 <path 
     style="fill:#4d4d4d" 
     d="M 2 2 L 2 14 L 14 14 L 14 2 L 2 2 z M 3 6 L 6 6 L 6 9 L 3 9 L 3 6 z M 7 6 L 9 6 L 9 9 L 7 9 L 7 6 z M 10 6 L 13 6 L 13 9 L 10 9 L 10 6 z M 3 10 L 6 10 L 6 13 L 3 13 L 3 10 z M 7 10 L 9 10 L 9 13 L 7 13 L 7 10 z M 10 10 L 13 10 L 13 13 L 10 13 L 10 10 z "
     />
 </svg>
